X: 415
%
U:~=!turn!
T: Miss Margaret MacKeracher
C:D. McKeracher
O:Scotland
B:Keith Norman MacDonald : "The Skye collection of the best reels & strathspeys extant" : 1887
Z:Ralph Palmer
R:Strathspey
M:C
L:1/8
K:A dorian
D !segno!| G>AB>c dBB>g | Bdd>B cee>g | GABc dB{/f}g>e | dG{Bc}c>B {/B}A2 G:| f/g/ | abea g2 d>g | bgfg dgBg |
bgd>g ec{ef}g>e | dG{B2AB}cB {/B}A2 G(f/g/) | abea g2 dg | bgfg dgBg | b>gd>B ec{ef}g>e | (3gfe (3dcB (3ced (3cBA !segno!|]


